src/assets/filled/Ranking.svg

<svg width="24" height="24" viewBox="0 0 24 24"  xmlns="http://www.w3.org/2000/svg">
<path d="M13.3 8.11032L14.62 10.7503C14.8 11.1103 15.28 11.4703 15.68 11.5303L18.07 11.9303C19.6 12.1903 19.96 13.2903 18.86 14.3903L17 16.2603C16.69 16.5703 16.51 17.1803 16.61 17.6203L17.14 19.9303C17.56 21.7503 16.59 22.4603 14.98 21.5103L12.74 20.1803C12.33 19.9403 11.67 19.9403 11.26 20.1803L9.00997 21.5003C7.39997 22.4503 6.42997 21.7403 6.84997 19.9203L7.37997 17.6103C7.47997 17.1803 7.29997 16.5703 6.98997 16.2503L5.13997 14.4003C4.03997 13.3003 4.39997 12.1903 5.92997 11.9403L8.31997 11.5403C8.71997 11.4703 9.19997 11.1203 9.37997 10.7603L10.7 8.12032C11.41 6.68032 12.59 6.68032 13.3 8.11032Z" />
<path d="M6 9.75C5.59 9.75 5.25 9.41 5.25 9V2C5.25 1.59 5.59 1.25 6 1.25C6.41 1.25 6.75 1.59 6.75 2V9C6.75 9.41 6.41 9.75 6 9.75Z" />
<path d="M18 9.75C17.59 9.75 17.25 9.41 17.25 9V2C17.25 1.59 17.59 1.25 18 1.25C18.41 1.25 18.75 1.59 18.75 2V9C18.75 9.41 18.41 9.75 18 9.75Z" />
<path d="M12 4.75C11.59 4.75 11.25 4.41 11.25 4V2C11.25 1.59 11.59 1.25 12 1.25C12.41 1.25 12.75 1.59 12.75 2V4C12.75 4.41 12.41 4.75 12 4.75Z" />
</svg>

<?xml version="1.0" encoding="UTF-8"?>
<svg width="24" height="24" viewBox="0 0 24 24" xmlns="http://www.w3.org/2000/svg">
 <path d="m13.3 8.1103 1.32 2.64c0.18 0.36 0.66 0.72 1.06 0.78l2.39 0.4c1.53 0.26 1.89 1.36 0.79 2.46l-1.86 1.87c-0.31 0.31-0.49 0.92-0.39 1.36l0.53 2.31c0.42 1.82-0.55 2.53-2.16 1.58l-2.24-1.33c-0.41-0.24-1.07-0.24-1.48 0l-2.25 1.32c-1.61 0.95-2.58 0.24-2.16-1.58l0.53-2.31c0.1-0.43-0.08-1.04-0.39-1.36l-1.85-1.85c-1.1-1.1-0.74-2.21 0.79-2.46l2.39-0.4c0.4-0.07 0.88-0.42 1.06-0.78l1.32-2.64c0.71-1.44 1.89-1.44 2.6-0.01z"/>
 <path d="m6 9.75c-0.41 0-0.75-0.34-0.75-0.75v-7c0-0.41 0.34-0.75 0.75-0.75s0.75 0.34 0.75 0.75v7c0 0.41-0.34 0.75-0.75 0.75z"/>
 <path d="m18 9.75c-0.41 0-0.75-0.34-0.75-0.75v-7c0-0.41 0.34-0.75 0.75-0.75s0.75 0.34 0.75 0.75v7c0 0.41-0.34 0.75-0.75 0.75z"/>
 <path d="m12 4.75c-0.41 0-0.75-0.34-0.75-0.75v-2c0-0.41 0.34-0.75 0.75-0.75s0.75 0.34 0.75 0.75v2c0 0.41-0.34 0.75-0.75 0.75z"/>
</svg>
